images/torentje.svg

<svg height="480" viewBox="0 0 480 480" width="480" xmlns="http://www.w3.org/2000/svg"><g fill="none" fill-rule="evenodd"><circle cx="240" cy="240" fill="#eb5c6a" r="240"/><g fill="#fff" transform="translate(53 38)"><path d="m187 225.577703v178.422297c-12.990078 0-25.693771-1.226162-38.001652-3.569061l.001652-75.687523c0-.367466-.059242-.732529-.175445-1.081138-.597096-1.79129-2.533266-2.759374-4.324555-2.162278l-1.423025.474342c-1.83754.612513-3.076975 2.332138-3.076975 4.269074l-.00211 72.259562c-10.330404-2.461837-20.353046-5.717171-29.999943-9.69802l.002053-50.061542c0-.367466-.059242-.732529-.175445-1.081138-.597096-1.79129-2.533266-2.759374-4.324555-2.162278l-1.423025.474342c-1.83754.612513-3.076975 2.332138-3.076975 4.269074l-.002865 44.586519c-10.5297331-4.961816-20.5614797-10.806498-29.9997886-17.438596l.0026536-14.647923c0-.367466-.0592416-.732529-.1754447-1.081138-.5970965-1.79129-2.5332658-2.759374-4.3245553-2.162278l-1.4230249.474342c-1.8375397.612513-3.0769751 2.332138-3.0769751 4.269074l-.0028568 6.443931c-12.5304227-9.884166-23.86194-21.220702-33.7406064-33.755663l.004159-44.247964zm0-43.577703v26.389211l-177.74484315 65.03936v-11.747315l-9.25515685-6.222611zm-.119498-92-.000502 3.225.12-.0403578v70.4864068l-.12.036951.000502.650549-163.880502 63.641451v-16.485693l.119-.046307v-11.982l-.119.046651v-16.485693l.119-.046958v-12.6l-.119.046447v-16.485693zm-108.229502 87.92-37.654 14.623v11.947l37.654-14.696zm45-17.475-36 13.98v11.856l36-14.05zm-45-11.611-37.654 14.623v12.565l37.654-14.696zm90.471-6.047-36.471 14.163v11.768l36.471-14.234zm-45.471-11.428-36 13.98v12.475l36-14.05zm45.471-17.659-36.471 14.164v12.387l36.471-14.234zm17.878-113.7v74l-12 4-.001266-77.64938725c3.970695-.23265346 7.972205-.35061275 12.001266-.35061275z"/><path d="m374 225.577703v178.422297c-8.809917 0-17.488108-.563986-26.000437-1.657822l.000437-82.598762c0-.367466-.059242-.732529-.175445-1.081138-.597096-1.79129-2.533266-2.759374-4.324555-2.162278l-1.423025.474342c-1.83754.612513-3.076975 2.332138-3.076975 4.269074l-.00112 79.735156c-8.529252-1.489977-16.87458-3.51498-25.000127-6.03915l.001247-63.196006c0-.367466-.059242-.732529-.175445-1.081138-.597096-1.79129-2.533266-2.759374-4.324555-2.162278l-1.423025.474342c-1.83754.612513-3.076975 2.332138-3.076975 4.269074l-.001576 58.664453c-8.622744-3.133723-16.97165-6.837986-25.001077-11.067149l.002653-37.097304c0-.367466-.059242-.732529-.175445-1.081138-.597096-1.79129-2.533266-2.759374-4.324555-2.162278l-1.423025.474342c-1.83754.612513-3.076975 2.332138-3.076975 4.269074l-.002324 30.558881c-7.675935-4.558885-15.024056-9.611811-22.000533-15.11495l.002857-4.943931c0-.367466-.059242-.732529-.175445-1.081138-.597096-1.79129-2.533266-2.759374-4.324555-2.162278l-1.423025.474342c-.740862.246954-1.3845.673875-1.888879 1.222446-9.464903-8.258641-18.149079-17.389977-25.931559-27.265104l.004159-44.247964zm0-43.577703v26.389211l-177.744843 65.03936v-11.747315l-9.255157-6.222611zm-.119498-92-.000502 3.225.12-.0403578v70.4864068l-.12.036951.000502.650549-163.880502 63.641451v-16.485693l.119-.046307v-11.982l-.119.046651v-16.485693l.119-.046958v-12.6l-.119.046447v-16.485693zm-108.229502 87.92-37.654 14.623v11.947l37.654-14.696zm45-17.475-36 13.98v11.856l36-14.05zm-45-11.611-37.654 14.623v12.565l37.654-14.696zm90.471-6.047-36.471 14.163v11.768l36.471-14.234zm-45.471-11.428-36 13.98v12.475l36-14.05zm45.471-17.659-36.471 14.164v12.387l36.471-14.234zm17.878-113.7v74l-12 4-.001266-77.64938725c3.970695-.23265346 7.972205-.35061275 12.001266-.35061275z" opacity=".5" transform="matrix(-1 0 0 1 561 0)"/></g></g></svg>

<?xml version="1.0" encoding="UTF-8"?>
<svg width="480px" height="480px" viewBox="0 0 480 480" version="1.1" xmlns="http://www.w3.org/2000/svg" xmlns:xlink="http://www.w3.org/1999/xlink">
    <title>torentje</title>
    <defs>
        <circle id="path-1" cx="240" cy="240" r="240"></circle>
    </defs>
    <g id="torentje" stroke="none" stroke-width="1" fill="none" fill-rule="evenodd">
        <g id="Cirkel">
            <mask id="mask-2" fill="white">
                <use xlink:href="#path-1"></use>
            </mask>
            <use id="Oval-2" fill="#EB5C6A" xlink:href="#path-1"></use>
        </g>
        <g id="Toren" transform="translate(53.000000, 38.000000)" fill="#FFFFFF">
            <path d="M187,225.577703 L187,404 C174.009922,404 161.306229,402.773838 148.998348,400.430939 L149,324.743416 C149,324.37595 148.940758,324.010887 148.824555,323.662278 C148.227459,321.870988 146.291289,320.902904 144.5,321.5 L144.5,321.5 L143.076975,321.974342 C141.239435,322.586855 140,324.30648 140,326.243416 L140,326.243416 L139.99789,398.502978 C129.667486,396.041141 119.644844,392.785807 109.997947,388.804958 L110,338.743416 C110,338.37595 109.940758,338.010887 109.824555,337.662278 C109.227459,335.870988 107.291289,334.902904 105.5,335.5 L105.5,335.5 L104.076975,335.974342 C102.239435,336.586855 101,338.30648 101,340.243416 L101,340.243416 L100.997135,384.829935 C90.4674019,379.868119 80.4356553,374.023437 70.9973464,367.391339 L71,352.743416 C71,352.37595 70.9407584,352.010887 70.8245553,351.662278 C70.2274588,349.870988 68.2912895,348.902904 66.5,349.5 L66.5,349.5 L65.0769751,349.974342 C63.2394354,350.586855 62,352.30648 62,354.243416 L62,354.243416 L61.9971432,360.687347 C49.4667205,350.803181 38.1352032,339.466645 28.2565368,326.931684 L28.2606958,282.68372 L187,225.577703 Z M187,182 L187,208.389211 L9.25515685,273.428571 L9.25515685,261.681256 L0,255.458645 L187,182 Z M186.880502,90 L186.88,93.225 L187,93.1846422 L187,163.671049 L186.88,163.708 L186.880502,164.358549 L23,228 L23,211.514307 L23.119,211.468 L23.119,199.486 L23,199.532651 L23,183.046958 L23.119,183 L23.119,170.4 L23,170.446447 L23,153.960754 L186.880502,90 Z M78.651,177.92 L40.997,192.543 L40.997,204.49 L78.651,189.794 L78.651,177.92 Z M123.651,160.445 L87.651,174.425 L87.651,186.281 L123.651,172.231 L123.651,160.445 Z M78.651,148.834 L40.997,163.457 L40.997,176.022 L78.651,161.326 L78.651,148.834 Z M169.122,142.787 L132.651,156.95 L132.651,168.718 L169.122,154.484 L169.122,142.787 Z M123.651,131.359 L87.651,145.339 L87.651,157.814 L123.651,143.764 L123.651,131.359 Z M169.122,113.7 L132.651,127.864 L132.651,140.251 L169.122,126.017 L169.122,113.7 Z M187,0 L187,74 L175,78 L174.998734,0.350612748 C178.969429,0.117959287 182.970939,0 187,0 L187,0 Z" id="Links"></path>
            <path d="M374,225.577703 L374,404 C365.190083,404 356.511892,403.436014 347.999563,402.342178 L348,319.743416 C348,319.37595 347.940758,319.010887 347.824555,318.662278 C347.227459,316.870988 345.291289,315.902904 343.5,316.5 L343.5,316.5 L342.076975,316.974342 C340.239435,317.586855 339,319.30648 339,321.243416 L339,321.243416 L338.99888,400.978572 C330.469628,399.488595 322.1243,397.463592 313.998753,394.939422 L314,331.743416 C314,331.37595 313.940758,331.010887 313.824555,330.662278 C313.227459,328.870988 311.291289,327.902904 309.5,328.5 L309.5,328.5 L308.076975,328.974342 C306.239435,329.586855 305,331.30648 305,333.243416 L305,333.243416 L304.998424,391.907869 C296.37568,388.774146 288.026774,385.069883 279.997347,380.84072 L280,343.743416 C280,343.37595 279.940758,343.010887 279.824555,342.662278 C279.227459,340.870988 277.291289,339.902904 275.5,340.5 L275.5,340.5 L274.076975,340.974342 C272.239435,341.586855 271,343.30648 271,345.243416 L271,345.243416 L270.997676,375.802297 C263.321741,371.243412 255.97362,366.190486 248.997143,360.687347 L249,355.743416 C249,355.37595 248.940758,355.010887 248.824555,354.662278 C248.227459,352.870988 246.291289,351.902904 244.5,352.5 L244.5,352.5 L243.076975,352.974342 C242.336113,353.221296 241.692475,353.648217 241.188096,354.196788 C231.723193,345.938147 223.039017,336.806811 215.256537,326.931684 L215.260696,282.68372 L374,225.577703 Z M374,182 L374,208.389211 L196.255157,273.428571 L196.255157,261.681256 L187,255.458645 L374,182 Z M373.880502,90 L373.88,93.225 L374,93.1846422 L374,163.671049 L373.88,163.708 L373.880502,164.358549 L210,228 L210,211.514307 L210.119,211.468 L210.119,199.486 L210,199.532651 L210,183.046958 L210.119,183 L210.119,170.4 L210,170.446447 L210,153.960754 L373.880502,90 Z M265.651,177.92 L227.997,192.543 L227.997,204.49 L265.651,189.794 L265.651,177.92 Z M310.651,160.445 L274.651,174.425 L274.651,186.281 L310.651,172.231 L310.651,160.445 Z M265.651,148.834 L227.997,163.457 L227.997,176.022 L265.651,161.326 L265.651,148.834 Z M356.122,142.787 L319.651,156.95 L319.651,168.718 L356.122,154.484 L356.122,142.787 Z M310.651,131.359 L274.651,145.339 L274.651,157.814 L310.651,143.764 L310.651,131.359 Z M356.122,113.7 L319.651,127.864 L319.651,140.251 L356.122,126.017 L356.122,113.7 Z M374,0 L374,74 L362,78 L361.998734,0.350612748 C365.969429,0.117959287 369.970939,0 374,0 L374,0 Z" id="Rechts" opacity="0.5" transform="translate(280.500000, 202.000000) scale(-1, 1) translate(-280.500000, -202.000000) "></path>
        </g>
    </g>
</svg>
